X: 83
T: The Fair Maid of the Inn
%R: reel
B: Chas & Sam Thompson "Twenty Four Country Dances for the Year 1776", London 1776, p.42 #1
F: http://www.vwml.org/browse/browse-collections-dance-tune-books/browse-thompsons1776#
Z: 2014 John Chambers <jc:trillian.mit.edu> (added dance description)
M: C|
L: 1/8
K: Bb
% - - - - - - - - - - - - - - - - - - - - - - - - - - - - -
|:\
(Bd)(fd) B2B2 | (cd)(Bc) A2F2 | (GB)(Ac) (Bd)(ce) | dfed {d2}c4 |
(Bd)(fd) B2B2 | (cd)(Bc) {B}A2(GF) | (GB)(Ac) (Bd)(dc) | d2Tc2 B4 :|
|:\
(DE)(FB) G2G2 | (FG)(AB) c2c2 | (Bc)(de) (fb)(ag) | (fe)(dc) B2B2 |
(DE)(FB) G2G2 | (FG)(AB) c2c2 | (Bc)(de) (fb)(ag) | (fe)(dc) B4 :|
% - - - - - - - - - - Dance description - - - - - - - - - -
%%begintext align
%% Cast off 2 Cu. & turn both hands .| the same back
%% again :| lead down up again & cast off .|| lead thro'
%% the 3d Cu. & cast up lead thro' the 2d Cu. & cast off :||
%%endtext

%%sep 1 1 500
%%sep 1 1 500
